packages/dnb-eufemia/assets/icons/camper_trailer_medium.svg

<svg width="24" height="24" viewBox="0 0 24 24" fill="none" xmlns="http://www.w3.org/2000/svg">
<path d="M9.75 18.5769C9.75 20.1913 8.40685 21.5 6.75 21.5C5.09315 21.5 3.75 20.1913 3.75 18.5769M9.75 18.5769C9.75 16.9626 8.40685 15.6538 6.75 15.6538C5.09315 15.6538 3.75 16.9626 3.75 18.5769M9.75 18.5769H18.75M3.75 18.5769H2.25C1.433 18.5769 0.75 17.9114 0.75 17.1154V3.96154C0.75 3.16549 1.433 2.5 2.25 2.5H12.75C16.018 2.5 18.75 5.16195 18.75 8.34615V18.5769M18.75 18.5769H23.25M8.25 5.42308H4.75C4.19771 5.42308 3.75 5.85931 3.75 6.39744V8.83333C3.75 9.37146 4.19771 9.80769 4.75 9.80769H8.25M8.25 5.42308H11.75C12.3023 5.42308 12.75 5.85931 12.75 6.39744V8.83333C12.75 9.37146 12.3023 9.80769 11.75 9.80769H8.25M8.25 5.42308V9.80769" stroke="black" stroke-width="1.5" stroke-linecap="round" stroke-linejoin="round"/>
</svg>

<svg width="24" height="24" viewBox="0 0 24 24" fill="none" xmlns="http://www.w3.org/2000/svg"><path d="M9.75 18.577c0 1.614-1.343 2.923-3 2.923s-3-1.309-3-2.923m6 0c0-1.614-1.343-2.923-3-2.923s-3 1.309-3 2.923m6 0h9m-15 0h-1.5c-.817 0-1.5-.666-1.5-1.462V3.962c0-.797.683-1.462 1.5-1.462h10.5c3.268 0 6 2.662 6 5.846v10.23m0 0h4.5m-15-13.153h-3.5c-.552 0-1 .436-1 .974v2.436c0 .538.448.975 1 .975h3.5m0-4.385h3.5c.552 0 1 .436 1 .974v2.436a.987.987 0 0 1-1 .975h-3.5m0-4.385v4.385" stroke="#000" stroke-width="1.5" stroke-linecap="round" stroke-linejoin="round"/></svg>
